public/avatar/hat/103.svg

<svg xmlns:xlink="http://www.w3.org/1999/xlink" height="92.9" width="100.7" xmlns="http://www.w3.org/2000/svg"><use height="29.5" transform="translate(19.05 41.6)" width="38.75" xlink:href="#a"/><defs><g id="a" fill-rule="evenodd"><path d="m2.45-.65 3.8-.15q2.15-.25 3.9 2.3 2.9 4.4.8 12.15-1.95-6-3.55-8.6-1.85-2.9-5.25-4.9l.3-.8m-6 3.8q-7.3 4-10.7 10.25l.2-1.25.35-3.05q.55-2 2-3.75 3.05-3.7 8.85-4.5l-.7 2.3" transform="translate(19.6 8.15)"/><path d="M.65-2.2q.7-1.85 2.25-1.6 1.5.3 2.85 2.4Q6.85.25 7.3 4q.4 2.65-.5 7.45l-4-7.75Q1.55-.5-.15-1.7l.8-.5" transform="translate(19.6 8.15)"/><path d="m-3.65-3.95 3.9.4 1.9-.5 2-.15q1.1.2 3.45 1.75Q12.45.65 14.65 9q.4 1.65.1 7.15-.95-.7-1.85-3.55l-1.25-4.1q-2.2-5.55-4.2-6.8-1.75-1.15-5.2.55-2.55 1.2-4.45.35Q-6.8.55-14.85 3.65q3.55-5.1 6.85-6.9 1.1-.6 4.35-.7" transform="translate(19.6 8.15)"/><path d="M-7.75-1.05q1.9-.85 2.55-1.45l1 .85q0 2.95-2.1 5.35l-4.25 4.1q-2.2 2.4-5.8 13.55-.15-7.05.55-10.25.4-1.85 2.2-5.65 1.75-3.7 3.2-5l2.65-1.5M8.65 1.5l-.35-2q4.15.95 7.45 6.6-1.95-.15-4.1-1.5-2.3-1.45-3-3.1" transform="translate(19.6 8.15)"/><path d="M-6.7 2q-1.65 2.75-11 5.85 1.4-2.9 4.35-5.75 3.2-3.05 6.15-3.95L-6.7 2m20.65 6q.95.95 1.7 4.65.85 4.15.15 7-.25 1.4-.65-1.35-1.2-4.3-1.7-5.15l.5-5.15" transform="translate(19.6 8.15)"/><path d="M11.65 2.4q.55 1.05 3.35 4 2.8 3.65 4.15 8.95-1.55-.8-3.75-3-2.3-2.3-2.75-3.75l-1-6.2m-24.2 1.95 1.5.65q.05 2.95-2.9 6.2-2.4 2.65-5.6 4.3 2.65-6.4 7-11.15" transform="translate(19.6 8.15)"/><path d="m-11.05 1.8.85-.8q.8 1.45-.8 4l-1.55 1.85-1.45.8q1.55-2.7 2.3-3.3-1.75 1.25-4.05 2 .15-.75 2.1-2.85.95-1 3.05-2.15l-.45.45" fill="#fff" transform="translate(19.6 8.15)"/><path d="m14.25 10.05 1.15 2.15.45.15q.55.4.9 1.6l2.15 6.15-3.65-1.15-1-8.9m-28.45.6-1.3 8.05-4.1 1.65 2.25-5.35 3.15-4.35" transform="translate(19.6 8.15)"/><path d="m9.05.5 2.75 2.15 2.75 2.7q-2.4-.65-3.5-1.25l2.35 3.3-3.35-3q-.6-1.05-.9-3.55L9.05.5M-14.2 9.15v1.5l-3 2.35 3-3.85m28 .7.65-1.5 3.2 4.65-3.85-3.15" fill="#fff" transform="translate(19.6 8.15)"/><path d="M-1.8 1.2q.15.85-1.2 2.8l-1.9 2.5-3.95 5.95-1.2 2.4q-.8 1.55-1.55 2 .1-7.6 1.8-11.5 7.3-8.1 8-4.15" transform="translate(19.6 8.15)"/><path d="m-3.7-.6-1.35-1.5 3.75.75Q.9-.8.65.75l-1.35 3-1.65 3.35L-2.8 9q-.25 1.25-.75 1.55Q-4.9 7.8-5.15 4.9-5.5 1.25-3.7-.6" transform="translate(19.6 8.15)"/><path d="M-1.45-1.25Q-2.6 5.3-3.8 10.05q-.7-.35-1.9-4.3L-6.95.85q-.2-1.95.85-3.1 1.25-1.35 3.35.5l1.3.5m5.75 2.7q1 1.55.85 6.5 0 4.05-1.3 6-.35-2.95-1.3-5.6l-1-2.7Q-.1 3.9-.55 2.9L2.1 1.7l2.2-.25" transform="translate(19.6 8.15)"/><path d="M7.8 2.5q-.15 1.9.65 6.15.25 3.55-.5 6.65l-2.3-5.45q-1.95-5.05-1.7-7L7.8 2.5" transform="translate(19.6 8.15)"/><path d="m-11.45 16.45 2.5-5.7 2.2-5.05.35 1.25-5.05 9.5" fill="#8c8c8c" transform="translate(19.6 8.15)"/><path d="M6.7 3.95q1.1 3.75.65 4.9-2.65-4.75-2.2-6 .2-.55.75-.1l.8 1.2m-3.7 1Q2.9 4 3.3 3.7l.45-.1q.75 1.05.75 5.3Q3.15 6.4 3 4.95m-10.7-2.8q.5 1.25-2.25 7.35l.55-4.9q1-4.25 1.7-2.45m3.65.7q1.55 1.3.3 6.45-.9-1.35-1.1-4.35-.25-3.05.8-2.1" fill="#fff" transform="translate(19.6 8.15)"/><path d="m2.5-.15-4-3.5q1.2-3.8 7.4-4.5-1.05 2.6-2.25 3.6l5.5-.25Q3.7-.35 2.5-.15" transform="translate(19.6 8.15)"/><path d="M-14.2-.55q1.2-1.3 3.75-2.35 3.65-1.55 4.6-1.15-1.5-.7-3.4-1Q-3.1-7.5.4-2.9L-3.5-.65Q-3.95.7-8.1.15l-6.1-.7" transform="translate(19.6 8.15)"/></g></defs></svg>

<?xml version="1.0" encoding="UTF-8" standalone="no"?>
<svg xmlns:xlink="http://www.w3.org/1999/xlink" height="92.9px" width="100.7px" xmlns="http://www.w3.org/2000/svg">
  <g transform="matrix(1.0, 0.0, 0.0, 1.0, 38.65, 49.75)">
    <use height="29.5" transform="matrix(1.0, 0.0, 0.0, 1.0, -19.6, -8.15)" width="38.75" xlink:href="#shape0"/>
  </g>
  <defs>
    <g id="shape0" transform="matrix(1.0, 0.0, 0.0, 1.0, 19.6, 8.15)">
      <path d="M2.45 -0.65 L6.25 -0.8 Q8.4 -1.05 10.15 1.5 13.05 5.9 10.95 13.65 9.0 7.65 7.4 5.05 5.55 2.15 2.15 0.15 L2.45 -0.65" fill="#000000" fill-rule="evenodd" stroke="none"/>
      <path d="M-3.55 3.15 Q-10.85 7.15 -14.25 13.4 L-14.05 12.15 -13.7 9.1 Q-13.15 7.1 -11.7 5.35 -8.65 1.65 -2.85 0.85 L-3.55 3.15" fill="#000000" fill-rule="evenodd" stroke="none"/>
      <path d="M0.65 -2.2 Q1.35 -4.05 2.9 -3.8 4.4 -3.5 5.75 -1.4 6.85 0.25 7.3 4.0 7.7 6.65 6.8 11.45 L2.8 3.7 Q1.55 -0.5 -0.15 -1.7 L0.65 -2.2" fill="#000000" fill-rule="evenodd" stroke="none"/>
      <path d="M-3.65 -3.95 L0.25 -3.55 2.15 -4.05 4.15 -4.2 Q5.25 -4.0 7.6 -2.45 12.45 0.65 14.65 9.0 15.05 10.65 14.75 16.15 13.8 15.45 12.9 12.6 L11.65 8.5 Q9.45 2.95 7.45 1.7 5.7 0.55 2.25 2.25 -0.3 3.45 -2.2 2.6 -6.8 0.55 -14.85 3.65 -11.3 -1.45 -8.0 -3.25 -6.9 -3.85 -3.65 -3.95" fill="#000000" fill-rule="evenodd" stroke="none"/>
      <path d="M-7.75 -1.05 Q-5.85 -1.9 -5.2 -2.5 L-4.2 -1.65 Q-4.2 1.3 -6.3 3.7 L-10.55 7.8 Q-12.75 10.2 -16.35 21.35 -16.5 14.3 -15.8 11.1 -15.4 9.25 -13.6 5.45 -11.85 1.75 -10.4 0.45 L-7.75 -1.05" fill="#000000" fill-rule="evenodd" stroke="none"/>
      <path d="M8.65 1.5 L8.3 -0.5 Q12.45 0.45 15.75 6.1 13.8 5.95 11.65 4.6 9.35 3.15 8.65 1.5" fill="#000000" fill-rule="evenodd" stroke="none"/>
      <path d="M-6.7 2.0 Q-8.35 4.75 -17.7 7.85 -16.3 4.95 -13.35 2.1 -10.15 -0.95 -7.2 -1.85 L-6.7 2.0" fill="#000000" fill-rule="evenodd" stroke="none"/>
      <path d="M13.95 8.0 Q14.9 8.95 15.65 12.65 16.5 16.8 15.8 19.65 15.55 21.05 15.15 18.3 13.95 14.0 13.45 13.15 L13.95 8.0" fill="#000000" fill-rule="evenodd" stroke="none"/>
      <path d="M11.65 2.4 Q12.2 3.45 15.0 6.4 17.8 10.05 19.15 15.35 17.6 14.55 15.4 12.35 13.1 10.05 12.65 8.6 L11.65 2.4" fill="#000000" fill-rule="evenodd" stroke="none"/>
      <path d="M-12.55 4.35 L-11.05 5.0 Q-11.0 7.95 -13.95 11.2 -16.35 13.85 -19.55 15.5 -16.9 9.1 -12.55 4.35" fill="#000000" fill-rule="evenodd" stroke="none"/>
      <path d="M-11.05 1.8 L-10.2 1.0 Q-9.4 2.45 -11.0 5.0 L-12.55 6.85 -14.0 7.65 Q-12.45 4.95 -11.7 4.35 -13.45 5.6 -15.75 6.35 -15.6 5.6 -13.65 3.5 -12.7 2.5 -10.6 1.35 L-11.05 1.8" fill="#ffffff" fill-rule="evenodd" stroke="none"/>
      <path d="M14.25 10.05 L15.4 12.2 15.85 12.35 Q16.4 12.75 16.75 13.95 L18.9 20.1 15.25 18.95 14.25 10.05" fill="#000000" fill-rule="evenodd" stroke="none"/>
      <path d="M-14.2 10.65 L-15.5 18.7 -19.6 20.35 -17.35 15.0 -14.2 10.65" fill="#000000" fill-rule="evenodd" stroke="none"/>
      <path d="M9.05 0.5 L11.8 2.65 14.55 5.35 Q12.15 4.7 11.05 4.1 L13.4 7.4 10.05 4.4 Q9.45 3.35 9.15 0.85 L9.05 0.5" fill="#ffffff" fill-rule="evenodd" stroke="none"/>
      <path d="M-14.2 9.15 L-14.2 10.65 -17.2 13.0 -14.2 9.15" fill="#ffffff" fill-rule="evenodd" stroke="none"/>
      <path d="M13.8 9.85 L14.45 8.35 17.65 13.0 13.8 9.85" fill="#ffffff" fill-rule="evenodd" stroke="none"/>
      <path d="M-1.8 1.2 Q-1.65 2.05 -3.0 4.0 L-4.9 6.5 -8.85 12.45 -10.05 14.85 Q-10.85 16.4 -11.6 16.85 -11.5 9.25 -9.8 5.35 -2.5 -2.75 -1.8 1.2" fill="#000000" fill-rule="evenodd" stroke="none"/>
      <path d="M-3.7 -0.6 L-5.05 -2.1 -1.3 -1.35 Q0.9 -0.8 0.65 0.75 L-0.7 3.75 -2.35 7.1 -2.8 9.0 Q-3.05 10.25 -3.55 10.55 -4.9 7.8 -5.15 4.9 -5.5 1.25 -3.7 -0.6" fill="#000000" fill-rule="evenodd" stroke="none"/>
      <path d="M-1.45 -1.25 Q-2.6 5.3 -3.8 10.05 -4.5 9.7 -5.7 5.75 L-6.95 0.85 Q-7.15 -1.1 -6.1 -2.25 -4.85 -3.6 -2.75 -1.75 L-1.45 -1.25" fill="#000000" fill-rule="evenodd" stroke="none"/>
      <path d="M4.3 1.45 Q5.3 3.0 5.15 7.95 5.15 12.0 3.85 13.95 3.5 11.0 2.55 8.35 L1.55 5.65 Q-0.1 3.9 -0.55 2.9 L2.1 1.7 4.3 1.45" fill="#000000" fill-rule="evenodd" stroke="none"/>
      <path d="M7.8 2.5 Q7.65 4.4 8.45 8.65 8.7 12.2 7.95 15.3 L5.65 9.85 Q3.7 4.8 3.95 2.85 L7.8 2.5" fill="#000000" fill-rule="evenodd" stroke="none"/>
      <path d="M-11.45 16.45 L-8.95 10.75 -6.75 5.7 -6.4 6.95 -11.45 16.45" fill="#8c8c8c" fill-rule="evenodd" stroke="none"/>
      <path d="M6.7 3.95 Q7.8 7.7 7.35 8.85 4.7 4.1 5.15 2.85 5.35 2.3 5.9 2.75 L6.7 3.95" fill="#ffffff" fill-rule="evenodd" stroke="none"/>
      <path d="M3.0 4.95 Q2.9 4.0 3.3 3.7 L3.75 3.6 Q4.5 4.65 4.5 8.9 3.15 6.4 3.0 4.95" fill="#ffffff" fill-rule="evenodd" stroke="none"/>
      <path d="M-7.7 2.15 Q-7.2 3.4 -9.95 9.5 L-9.4 4.6 Q-8.4 0.35 -7.7 2.15" fill="#ffffff" fill-rule="evenodd" stroke="none"/>
      <path d="M-4.05 2.85 Q-2.5 4.15 -3.75 9.3 -4.65 7.95 -4.85 4.95 -5.1 1.9 -4.05 2.85" fill="#ffffff" fill-rule="evenodd" stroke="none"/>
      <path d="M2.5 -0.15 L-1.5 -3.65 Q-0.3 -7.45 5.9 -8.15 4.85 -5.55 3.65 -4.55 L9.15 -4.8 Q3.7 -0.35 2.5 -0.15" fill="#000000" fill-rule="evenodd" stroke="none"/>
      <path d="M-14.2 -0.55 Q-13.0 -1.85 -10.45 -2.9 -6.8 -4.45 -5.85 -4.05 -7.35 -4.75 -9.25 -5.05 -3.1 -7.5 0.4 -2.9 L-3.5 -0.65 Q-3.95 0.7 -8.1 0.15 L-14.2 -0.55" fill="#000000" fill-rule="evenodd" stroke="none"/>
    </g>
  </defs>
</svg>
